X:1
T:What Then Is Love But Mourning
T:What Then Is Love But Mourning
T:from the "Book of Ayres"
T:Philip Rosseter (1568 - 1623)
T:Thomas Campion (1567 - 1620)
C:Philip Rosseter (1568 - 1623)
Z:Thomas Campion (1567 - 1620)
%%score 1 ( 2 3 )
L:1/8
Q:1/4=86
M:4/4
K:Bb
V:1 treble nm="Countertenor"
V:2 tab stafflines=6 strings=G2,C3,F3,A3,D4,G4 nm="Laute (Tabulatur)"
V:3 tab stafflines=6 strings=G2,C3,F3,A3,D4,G4 
V:1
!mp! d2 dd B2 c2 | (A3 G) G4 |!<(! AB c2 d=e f2!<)! |!f! (=e3 d) d4 |!>(! f2 =ed c2 d2 | %5
w: 1. What then is love but|mourn- * ing?|What de- sire, but a self-|burn- * ing?|Till she that hates doth|
w: 2. Beaut- y is but a|bloom- * ing,|youth in his glor- y en-|tomb- * ing.|Time hath a while which|
w: 3. Sum- mer in win- ter|fad- * eth,|gloom- y night heav'n- ly light|shad- * eth.|Like to the morn are|
 B2 c2 A4!>)! |:!mp!!<(! G2 AB c4 | A2 Bc d4!<)! |!f! Bc d2!>(! GABc | A4!mp! G4!>)! :| %10
w: love re- turn,|thus will I mourn,|thus will I sing:|Come a- way, come a- way my|dar- ling.|
w: none can stay,|then come a- way|while thus I sing:|Come a- way, come a- way my|dar- ling.|
w: Ve- nus' flow'rs,|such are her hours,|then will I sing:|Come a- way, come a- way my|dar- ling.|
V:2
!p! !1!B3 !1!A [!5!E,!2!E!1!G]2 !1!A!1!G- | !1!G2 !2!^F2 [!4!G,!3!=B,!2!D!1!G]4 | %2
 [!3!D!2!=F]!1!G [!4!A,!3!C!2!=E!1!A]2 [!2!D!1!A]4 | [!2!=E!1!A]4 [!5!D,!3!D!2!^F!1!A]4 | %4
 [!5!D,!3!D!2!=F]2 [!5!=E,!1!G]2 [!4!F,!3!A,!2!F!1!A]2 !1!B!1!A | %5
 [!4!G,!2!D!1!G]2 !1!A!1!G [!5!D,!4!A,!3!D!2!^F]4 |: %6
 [!4!G,!3!B,!2!D]4 [!5!C,!4!G,!3!C!2!E]2 [!5!D,!2!F][!5!E,!1!G] | %7
 [!3!C!2!F]3 !2!E [!6!B,,!4!F,!3!B,!2!D]2 [!5!C,!2!E][!5!D,!2!F] | %8
 [!5!E,!2!E!1!G]2 [!6!B,,!3!D!2!F]2 [!3!C!2!E]!2!F [!6!G,,!3!B,!2!D!1!G-]2 | %9
 !1!G2 !2!^F2 [!6!G,,!5!D,!4!G,!3!=B,!2!D!1!G]4 :| %10
V:3
 [!6!B,,!4!F,!2!D]4 x2 [!5!C,!2!E]2 | [!5!D,!2!D]4 x4 | !5!D,2 x2 !4!F,2 !5!D,2 | %3
 [!4!A,!3!D]2 [!6!A,,!3!^C]2 x4 | x2 !3!C!3!B, x2 [!5!D,!2!F]2 | x2 [!5!C,!2!_E]2 x4 |: x8 | %7
 !4!F,4 x4 | x4 !5!C,2 x2 | [!5!D,!2!D]4 x4 :| %10

